!!!COM: Martinů, Bohuslav (Jan)
!!!OTL: Piano Quartet
!!!OMV: III: Allegretto poco moderato
!!!example: 510
!!!work: Mau-67
**kern	**kern	**dynam
*part1	*part1	*part1
*staff2	*staff1	*
*I"Piano	*	*
*I'Pno.	*	*
*clefF4	*clefG2	*
*k[]	*k[]	*
*C:	*C:	*
*M6/8	*M6/8	*
=1	=	=
(4.BBB-X	(4B-X 4d 4b-X	p
.	4c 4e-X 4cc	.
4BB-X	.	.
.	4d) 4f	.
[8B-X	.	.
=2	=2	=2
8B-])	(4c 4e-X 4b-X	.
(4BBB-X	.	.
.	8e- 8g [8b-	.
4BB-X	4d) 4f 4b-]	.
[8B-X	([8c [8e- [8b-	.
=3	=3	=3
8B-])	8cL] 8e-] 8b-]	.
(4BBB-X	8B-X 8d	.
.	[8AJ [8f	<
4BB-X	8A] 8f]	.
.	4G~) 4e-X	.
[8B-X	.	.
=4	=4	=4
8B-])	(8F 8d	.
8r	4A) 4c	[
(4BBB-X	.	.
.	4G~ 4B-X	.
4BB-X	.	.
.	[8F [8d	.
=5	=5	=5
4.B-X)	4.F_ 4.d_	.
(4BBB-X	4F] 4d]	.
[8BB-X	(8B-X 8d [8b-X	mp
=6	=6	=6
!!linebreak:original
8BB-]	4c) 4e-X 4b-]	.
4.B-X)	.	.
.	(8d 8f	.
.	4g 4b 4dd	<
(4EE-X	.	.
.	[8f [8a [8dd	.
=7	=7	=7
4.E-X)	8fL] 8a] 8dd]	.
.	8e-X) 8g	.
.	([8gJ [8b [8dd	[
(4CC	8g] 8b] 8dd]	.
.	4f) 4a 4dd	.
[8C	.	.
=8	=8	=8
8C]	(4f 4a 4cc	.
4BB-X	.	.
.	[8e-X [8g [8cc	.
4B-X)	8e-L] 8g] 8cc]	.
.	8d) 8f	<
([8AAA-X [8AA-X	([8gJ [8b-X	.
=9	=9	=9
8AAA-] 8AA-]	8g] 8b-]	[
4AA-X 4A-X	4f 4a-X	.
4BB-X~) 4B-X	8e-X') 8g	>
.	4d~ 4f	.
[8FF [8F	.	.
==	==	==
*-	*-	*-
!!!CDT: 1890/12/08-1959/08/28
!!!CBL: Polička, Bohemia
!!!CDL: Liestal, Switzerland
!!!CNT: Czech
!!!AGN: Instrumental; Chamber
!!!MCN:
!!!MDT: 1942/08/01
!!!MGN: Chamber Music Guild Quartet
!!!MLC: Lenox, Massachusetts, United States of America
!!!MPD: 1942
!!!MPN: Bontempo, Elly; Kirsch-Laporte, Lucien; Lifschey, E.; Ocko, B.
!!!ODT: 1942
!!!PDT: 1951
!!!excerpt-start-measure: 1
!!!excerpt-end-measure: 9
!!!excerpt-start-time: 0:00
!!!excerpt-end-time: 0:17
!!!EEV: 2020/01/17
!!!system-decoration: {(s1,s2)}
!!!ONB: Converted from MusicXML on 2020/01/17
